carriers/ups.svg

<svg width="128" height="64" viewBox="0 0 128 64" fill="none" xmlns="http://www.w3.org/2000/svg">
<rect width="128" height="64" rx="6" fill="white"/>
<path d="M75.041 11.7818C64.8592 11.7818 53.9456 13.9727 44.9229 22.2364V36.3909C44.9229 41 46.6274 44.85 49.8638 47.4864C52.7228 49.8136 61.5183 53.7955 64.0001 54.8909C66.4501 53.8136 75.2229 49.8909 78.1319 47.4864C81.391 44.8 83.091 41.0455 83.091 36.3909V12.1818C80.4819 11.9409 77.7865 11.7818 75.041 11.7818ZM57.7456 39.2727C56.3501 40.2227 54.4774 40.7409 52.241 40.7409C48.6047 40.7409 46.7865 38.7818 46.7865 34.9091V23.4318H50.4229V35.0818C50.4229 36.1182 50.6729 37.6546 52.3501 37.6546C52.9581 37.6769 53.5591 37.5187 54.0774 37.2V23.4318H57.7138L57.7456 39.2727ZM64.9092 40.6909C64.3538 40.7004 63.7999 40.6316 63.2638 40.4864V48.1818H59.6274V24.3636C61.1048 23.4557 62.8171 23.0035 64.5501 23.0636C68.9138 23.0636 71.3138 26.3727 71.3138 31.7C71.3138 37.0273 69.0001 40.6909 64.9092 40.6909ZM81.591 35.8682C81.5183 38.2046 79.9092 40.7546 76.3001 40.7546C74.884 40.7406 73.4971 40.35 72.2819 39.6227V36.2546C73.2464 37.1268 74.4757 37.6502 75.7729 37.7409C77.1138 37.7409 77.9956 36.9818 77.9638 35.7046C77.9365 34.5591 77.291 33.9364 75.691 32.9773C72.6774 31.2091 72.1365 29.7546 72.1319 27.8136C72.1319 24.8591 74.6319 23.1182 77.0365 23.05C78.4755 22.981 79.894 23.4132 81.0501 24.2727V27.4546C80.1907 26.5551 79.0198 26.0185 77.7774 25.9546C76.741 25.9546 75.6638 26.4091 75.6274 27.7C75.591 28.9909 76.6683 29.5546 78.0319 30.3546C81.0819 32.1227 81.6683 33.7364 81.6047 35.8682H81.591ZM67.5592 31.7773C67.5592 35.7727 66.5547 37.6864 64.4501 37.6864C64.0451 37.6821 63.6438 37.6083 63.2638 37.4682V26.2682C63.6724 26.0906 64.1137 26.0008 64.5592 26.0046C66.691 26.0046 67.5729 27.7 67.5729 31.7909L67.5592 31.7773Z" fill="#330000"/>
<path d="M83.091 12.1818C80.4955 11.9409 77.8001 11.7818 75.0546 11.7818C64.8728 11.7818 53.9591 13.9727 44.9364 22.2364V36.3909C44.9364 41 46.641 44.85 49.8773 47.4864C52.7364 49.8136 61.5319 53.7955 64.0137 54.8909C66.4637 53.8136 75.2364 49.8909 78.1455 47.4864C81.391 44.8 83.091 41.0455 83.091 36.3909V12.1818ZM46.8046 34.9091V23.4318H50.441V35.0818C50.441 36.1182 50.691 37.6545 52.3682 37.6545C52.9762 37.6769 53.5772 37.5187 54.0955 37.2V23.4318H57.7319V39.2727C56.3364 40.2227 54.4637 40.7409 52.2273 40.7409C48.591 40.7409 46.7728 38.7818 46.7728 34.9091M63.2773 48.1818H59.641V24.3636C61.1184 23.4557 62.8307 23.0035 64.5637 23.0636C68.9273 23.0636 71.3273 26.3727 71.3273 31.7C71.3273 37.0273 69.0001 40.6909 64.9091 40.6909C64.3538 40.7004 63.7998 40.6315 63.2637 40.4864L63.2773 48.1818ZM63.2773 37.5C63.6574 37.6401 64.0587 37.7139 64.4637 37.7182C66.5682 37.7182 67.5728 35.7864 67.5728 31.8091C67.5728 27.7182 66.691 26.0227 64.5728 26.0227C64.1273 26.0189 63.6859 26.1088 63.2773 26.2864V37.5ZM72.1364 27.8273C72.1364 24.8727 74.6364 23.1318 77.041 23.0636C78.4769 22.9914 79.8935 23.4187 81.0501 24.2727V27.4545C80.1906 26.5551 79.0197 26.0184 77.7773 25.9545C76.741 25.9545 75.6637 26.4091 75.6273 27.7C75.591 28.9909 76.6682 29.5545 78.0319 30.3545C81.0819 32.1727 81.6682 33.7636 81.6046 35.8955C81.5319 38.2318 79.9228 40.7818 76.3137 40.7818C74.8976 40.7679 73.5107 40.3773 72.2955 39.65V36.2545C73.26 37.1268 74.4892 37.6501 75.7864 37.7409C77.1273 37.7409 78.0092 36.9818 77.9773 35.7045C77.9501 34.5591 77.3046 33.9364 75.7046 32.9773C72.691 31.2091 72.1501 29.7545 72.1455 27.8136M48.641 48.9773C44.9455 45.9455 42.991 41.5955 42.991 36.3909V11.6636C48.8273 8.56818 55.8955 7 64.0001 7C72.1046 7 79.1728 8.56818 85.0092 11.6636V36.3909C85.0092 41.5955 83.0546 45.9364 79.3591 48.9773C75.9773 51.75 65.2319 56.4636 64.0001 57C62.7682 56.4636 52.0228 51.75 48.641 48.9773Z" fill="#FFBE00"/>
</svg>

<svg xmlns="http://www.w3.org/2000/svg" width="128" height="64" fill="none"><rect width="128" height="64" fill="#fff" rx="6"/><path fill="#300" d="M75.041 11.782c-10.182 0-21.095 2.19-30.118 10.454v14.155c0 4.609 1.704 8.459 4.94 11.095 2.86 2.328 11.655 6.31 14.137 7.405 2.45-1.077 11.223-5 14.132-7.405 3.259-2.686 4.959-6.44 4.959-11.095V12.18c-2.61-.24-5.304-.4-8.05-.4Zm-17.295 27.49c-1.396.95-3.269 1.469-5.505 1.469-3.636 0-5.455-1.96-5.455-5.832V23.432h3.637v11.65c0 1.036.25 2.573 1.927 2.573a3.082 3.082 0 0 0 1.727-.455V23.432h3.637l.032 15.84Zm7.163 1.419c-.555.01-1.11-.06-1.645-.205v7.696h-3.637V24.364a8.819 8.819 0 0 1 4.923-1.3c4.364 0 6.764 3.309 6.764 8.636 0 5.327-2.314 8.99-6.405 8.99Zm16.682-4.823c-.073 2.337-1.682 4.887-5.29 4.887a7.978 7.978 0 0 1-4.02-1.132v-3.368a5.809 5.809 0 0 0 3.492 1.486c1.34 0 2.223-.76 2.19-2.036-.026-1.146-.672-1.769-2.272-2.728-3.014-1.768-3.555-3.222-3.56-5.163 0-2.955 2.5-4.696 4.906-4.764a6.227 6.227 0 0 1 4.013 1.223v3.182a4.872 4.872 0 0 0-3.273-1.5c-1.036 0-2.113.454-2.15 1.745-.036 1.29 1.041 1.855 2.405 2.655 3.05 1.768 3.636 3.381 3.573 5.513h-.014Zm-14.032-4.09c0 3.995-1.004 5.908-3.109 5.908a3.538 3.538 0 0 1-1.186-.218v-11.2c.408-.177.85-.267 1.295-.263 2.132 0 3.014 1.695 3.014 5.786l-.014-.014Z"/><path fill="#FFBE00" d="M83.091 12.182c-2.595-.241-5.29-.4-8.036-.4-10.182 0-21.096 2.19-30.119 10.454v14.155c0 4.609 1.705 8.459 4.941 11.095 2.86 2.328 11.655 6.31 14.137 7.405 2.45-1.077 11.222-5 14.132-7.405 3.245-2.686 4.945-6.44 4.945-11.095V12.18ZM46.805 34.909V23.432h3.636v11.65c0 1.036.25 2.572 1.927 2.572a3.081 3.081 0 0 0 1.727-.454V23.432h3.637v15.84c-1.396.95-3.268 1.469-5.505 1.469-3.636 0-5.454-1.96-5.454-5.832m16.504 13.273h-3.636V24.364a8.819 8.819 0 0 1 4.923-1.3c4.363 0 6.763 3.309 6.763 8.636 0 5.327-2.327 8.99-6.418 8.99-.555.01-1.11-.058-1.645-.204l.013 7.696Zm0-10.682c.38.14.782.214 1.187.218 2.104 0 3.109-1.932 3.109-5.909 0-4.09-.882-5.786-3-5.786a3.182 3.182 0 0 0-1.296.263V37.5Zm8.86-9.673c0-2.954 2.5-4.695 4.904-4.763a6.223 6.223 0 0 1 4.01 1.209v3.181a4.873 4.873 0 0 0-3.274-1.5c-1.036 0-2.113.455-2.15 1.746-.036 1.29 1.041 1.855 2.405 2.655 3.05 1.818 3.636 3.409 3.573 5.54-.073 2.337-1.682 4.887-5.291 4.887a7.977 7.977 0 0 1-4.018-1.132v-3.395a5.809 5.809 0 0 0 3.49 1.486c1.341 0 2.223-.76 2.191-2.036-.027-1.146-.672-1.769-2.272-2.728-3.014-1.768-3.555-3.222-3.56-5.163M48.641 48.977c-3.695-3.031-5.65-7.381-5.65-12.586V11.664C48.827 8.568 55.895 7 64.001 7c8.104 0 15.172 1.568 21.008 4.664V36.39c0 5.205-1.954 9.545-5.65 12.586C75.977 51.75 65.232 56.464 64 57c-1.232-.536-11.977-5.25-15.359-8.023Z"/></svg>
